public/images/delegates/header-bg.svg

<svg width="594" height="77" fill="none" xmlns="http://www.w3.org/2000/svg"><g clip-path="url(#a)"><path d="M16.5 0 55 38.5 16.5 77-22 38.5 16.5 0Z" fill="url(#b)"/><path d="M555.5 0 594 38.5 555.5 77 517 38.5 555.5 0Z" fill="url(#c)"/><path d="M55 38.5 93.5 0H55v38.5Z" fill="url(#d)"/><path d="M286 38.5 324.5 0H286v38.5Z" fill="url(#e)"/><path d="M170.5 0 209 38.5V0h-38.5Z" fill="url(#f)"/><path d="M401.5 0 440 38.5V0h-38.5Z" fill="url(#g)"/><path d="M170.5 77 132 38.5V77h38.5Z" fill="url(#h)"/><path d="M286 38.5 247.5 77H286V38.5Z" fill="url(#i)"/><path d="M93.5 77 132 38.5H55L93.5 77Z" fill="url(#j)"/><path d="M132 38.5 170.5 0h-77L132 38.5Z" fill="url(#k)"/><path d="M363 38.5 401.5 0h-77L363 38.5Z" fill="url(#l)"/><path d="M209 38.5 170.5 77h77L209 38.5Z" fill="url(#m)"/><path d="M324.5 38.5 286 77h77l-38.5-38.5Z" fill="url(#n)"/><path d="M401.5 77 440 38.5h-77L401.5 77Z" fill="url(#o)"/><path d="M247.5 0 209 38.5h77L247.5 0Z" fill="url(#p)"/><path d="M478.5 0 440 38.5h77L478.5 0Z" fill="url(#q)"/><path d="M478.5 38.5 440 77h77l-38.5-38.5Z" fill="url(#r)"/></g><defs><linearGradient id="b" x1="112.805" y1="38.55" x2="463.004" y2="38.024" gradientUnits="userSpaceOnUse"><stop stop-color="#E5F0F8"/><stop offset="1" stop-color="#AACBE9"/></linearGradient><linearGradient id="c" x1="112.805" y1="38.55" x2="463.004" y2="38.024" gradientUnits="userSpaceOnUse"><stop stop-color="#E5F0F8"/><stop offset="1" stop-color="#AACBE9"/></linearGradient><linearGradient id="d" x1="112.805" y1="38.55" x2="463.004" y2="38.024" gradientUnits="userSpaceOnUse"><stop stop-color="#E5F0F8"/><stop offset="1" stop-color="#AACBE9"/></linearGradient><linearGradient id="e" x1="112.805" y1="38.55" x2="463.004" y2="38.024" gradientUnits="userSpaceOnUse"><stop stop-color="#E5F0F8"/><stop offset="1" stop-color="#AACBE9"/></linearGradient><linearGradient id="f" x1="112.805" y1="38.55" x2="463.004" y2="38.024" gradientUnits="userSpaceOnUse"><stop stop-color="#E5F0F8"/><stop offset="1" stop-color="#AACBE9"/></linearGradient><linearGradient id="g" x1="112.805" y1="38.55" x2="463.004" y2="38.024" gradientUnits="userSpaceOnUse"><stop stop-color="#E5F0F8"/><stop offset="1" stop-color="#AACBE9"/></linearGradient><linearGradient id="h" x1="112.805" y1="38.55" x2="463.004" y2="38.024" gradientUnits="userSpaceOnUse"><stop stop-color="#E5F0F8"/><stop offset="1" stop-color="#AACBE9"/></linearGradient><linearGradient id="i" x1="112.805" y1="38.55" x2="463.004" y2="38.024" gradientUnits="userSpaceOnUse"><stop stop-color="#E5F0F8"/><stop offset="1" stop-color="#AACBE9"/></linearGradient><linearGradient id="j" x1="112.805" y1="38.55" x2="463.004" y2="38.024" gradientUnits="userSpaceOnUse"><stop stop-color="#E5F0F8"/><stop offset="1" stop-color="#AACBE9"/></linearGradient><linearGradient id="k" x1="112.805" y1="38.55" x2="463.004" y2="38.024" gradientUnits="userSpaceOnUse"><stop stop-color="#E5F0F8"/><stop offset="1" stop-color="#AACBE9"/></linearGradient><linearGradient id="l" x1="112.805" y1="38.55" x2="463.004" y2="38.024" gradientUnits="userSpaceOnUse"><stop stop-color="#E5F0F8"/><stop offset="1" stop-color="#AACBE9"/></linearGradient><linearGradient id="m" x1="112.805" y1="38.55" x2="463.004" y2="38.024" gradientUnits="userSpaceOnUse"><stop stop-color="#E5F0F8"/><stop offset="1" stop-color="#AACBE9"/></linearGradient><linearGradient id="n" x1="112.805" y1="38.55" x2="463.004" y2="38.024" gradientUnits="userSpaceOnUse"><stop stop-color="#E5F0F8"/><stop offset="1" stop-color="#AACBE9"/></linearGradient><linearGradient id="o" x1="112.805" y1="38.55" x2="463.004" y2="38.024" gradientUnits="userSpaceOnUse"><stop stop-color="#E5F0F8"/><stop offset="1" stop-color="#AACBE9"/></linearGradient><linearGradient id="p" x1="112.805" y1="38.55" x2="463.004" y2="38.024" gradientUnits="userSpaceOnUse"><stop stop-color="#E5F0F8"/><stop offset="1" stop-color="#AACBE9"/></linearGradient><linearGradient id="q" x1="112.805" y1="38.55" x2="463.004" y2="38.024" gradientUnits="userSpaceOnUse"><stop stop-color="#E5F0F8"/><stop offset="1" stop-color="#AACBE9"/></linearGradient><linearGradient id="r" x1="112.805" y1="38.55" x2="463.004" y2="38.024" gradientUnits="userSpaceOnUse"><stop stop-color="#E5F0F8"/><stop offset="1" stop-color="#AACBE9"/></linearGradient><clipPath id="a"><path fill="#fff" d="M0 0h594v77H0z"/></clipPath></defs></svg>

<svg width="594" height="77" viewBox="0 0 594 77" fill="none" xmlns="http://www.w3.org/2000/svg">
<g clip-path="url(#clip0_6568_9987)">
<path d="M16.5 1.80289e-05L55 38.5L16.5 77L-22 38.5L16.5 1.80289e-05Z" fill="url(#paint0_linear_6568_9987)"/>
<path d="M555.5 1.80289e-05L594 38.5L555.5 77L517 38.5L555.5 1.80289e-05Z" fill="url(#paint1_linear_6568_9987)"/>
<path d="M55 38.5L93.5 3.68579e-05L55 1.6346e-05L55 38.5Z" fill="url(#paint2_linear_6568_9987)"/>
<path d="M286 38.5L324.5 3.68579e-05L286 1.6346e-05L286 38.5Z" fill="url(#paint3_linear_6568_9987)"/>
<path d="M170.5 0L209 38.5L209 3.36578e-06L170.5 0Z" fill="url(#paint4_linear_6568_9987)"/>
<path d="M401.5 0L440 38.5L440 3.36578e-06L401.5 0Z" fill="url(#paint5_linear_6568_9987)"/>
<path d="M170.5 77L132 38.5L132 77H170.5Z" fill="url(#paint6_linear_6568_9987)"/>
<path d="M286 38.5L247.5 77L286 77L286 38.5Z" fill="url(#paint7_linear_6568_9987)"/>
<path d="M93.5 77L132 38.5L55 38.5L93.5 77Z" fill="url(#paint8_linear_6568_9987)"/>
<path d="M132 38.5L170.5 0L93.5 3.68579e-05L132 38.5Z" fill="url(#paint9_linear_6568_9987)"/>
<path d="M363 38.5L401.5 0L324.5 3.68579e-05L363 38.5Z" fill="url(#paint10_linear_6568_9987)"/>
<path d="M209 38.5L170.5 77L247.5 77L209 38.5Z" fill="url(#paint11_linear_6568_9987)"/>
<path d="M324.5 38.5L286 77H363L324.5 38.5Z" fill="url(#paint12_linear_6568_9987)"/>
<path d="M401.5 77L440 38.5L363 38.5L401.5 77Z" fill="url(#paint13_linear_6568_9987)"/>
<path d="M247.5 3.01263e-05L209 38.5L286 38.5L247.5 3.01263e-05Z" fill="url(#paint14_linear_6568_9987)"/>
<path d="M478.5 3.01263e-05L440 38.5L478.5 38.5L517 38.5L478.5 3.01263e-05Z" fill="url(#paint15_linear_6568_9987)"/>
<path d="M478.5 38.5L440 77L517 77L478.5 38.5Z" fill="url(#paint16_linear_6568_9987)"/>
</g>
<defs>
<linearGradient id="paint0_linear_6568_9987" x1="112.805" y1="38.5504" x2="463.004" y2="38.0242" gradientUnits="userSpaceOnUse">
<stop stop-color="#E5F0F8"/>
<stop offset="1" stop-color="#AACBE9"/>
</linearGradient>
<linearGradient id="paint1_linear_6568_9987" x1="112.805" y1="38.5504" x2="463.004" y2="38.0242" gradientUnits="userSpaceOnUse">
<stop stop-color="#E5F0F8"/>
<stop offset="1" stop-color="#AACBE9"/>
</linearGradient>
<linearGradient id="paint2_linear_6568_9987" x1="112.805" y1="38.5504" x2="463.004" y2="38.0242" gradientUnits="userSpaceOnUse">
<stop stop-color="#E5F0F8"/>
<stop offset="1" stop-color="#AACBE9"/>
</linearGradient>
<linearGradient id="paint3_linear_6568_9987" x1="112.805" y1="38.5504" x2="463.004" y2="38.0242" gradientUnits="userSpaceOnUse">
<stop stop-color="#E5F0F8"/>
<stop offset="1" stop-color="#AACBE9"/>
</linearGradient>
<linearGradient id="paint4_linear_6568_9987" x1="112.805" y1="38.5504" x2="463.004" y2="38.0242" gradientUnits="userSpaceOnUse">
<stop stop-color="#E5F0F8"/>
<stop offset="1" stop-color="#AACBE9"/>
</linearGradient>
<linearGradient id="paint5_linear_6568_9987" x1="112.805" y1="38.5504" x2="463.004" y2="38.0242" gradientUnits="userSpaceOnUse">
<stop stop-color="#E5F0F8"/>
<stop offset="1" stop-color="#AACBE9"/>
</linearGradient>
<linearGradient id="paint6_linear_6568_9987" x1="112.805" y1="38.5504" x2="463.004" y2="38.0242" gradientUnits="userSpaceOnUse">
<stop stop-color="#E5F0F8"/>
<stop offset="1" stop-color="#AACBE9"/>
</linearGradient>
<linearGradient id="paint7_linear_6568_9987" x1="112.805" y1="38.5504" x2="463.004" y2="38.0242" gradientUnits="userSpaceOnUse">
<stop stop-color="#E5F0F8"/>
<stop offset="1" stop-color="#AACBE9"/>
</linearGradient>
<linearGradient id="paint8_linear_6568_9987" x1="112.805" y1="38.5504" x2="463.004" y2="38.0242" gradientUnits="userSpaceOnUse">
<stop stop-color="#E5F0F8"/>
<stop offset="1" stop-color="#AACBE9"/>
</linearGradient>
<linearGradient id="paint9_linear_6568_9987" x1="112.805" y1="38.5504" x2="463.004" y2="38.0242" gradientUnits="userSpaceOnUse">
<stop stop-color="#E5F0F8"/>
<stop offset="1" stop-color="#AACBE9"/>
</linearGradient>
<linearGradient id="paint10_linear_6568_9987" x1="112.805" y1="38.5504" x2="463.004" y2="38.0242" gradientUnits="userSpaceOnUse">
<stop stop-color="#E5F0F8"/>
<stop offset="1" stop-color="#AACBE9"/>
</linearGradient>
<linearGradient id="paint11_linear_6568_9987" x1="112.805" y1="38.5504" x2="463.004" y2="38.0242" gradientUnits="userSpaceOnUse">
<stop stop-color="#E5F0F8"/>
<stop offset="1" stop-color="#AACBE9"/>
</linearGradient>
<linearGradient id="paint12_linear_6568_9987" x1="112.805" y1="38.5504" x2="463.004" y2="38.0242" gradientUnits="userSpaceOnUse">
<stop stop-color="#E5F0F8"/>
<stop offset="1" stop-color="#AACBE9"/>
</linearGradient>
<linearGradient id="paint13_linear_6568_9987" x1="112.805" y1="38.5504" x2="463.004" y2="38.0242" gradientUnits="userSpaceOnUse">
<stop stop-color="#E5F0F8"/>
<stop offset="1" stop-color="#AACBE9"/>
</linearGradient>
<linearGradient id="paint14_linear_6568_9987" x1="112.805" y1="38.5504" x2="463.004" y2="38.0242" gradientUnits="userSpaceOnUse">
<stop stop-color="#E5F0F8"/>
<stop offset="1" stop-color="#AACBE9"/>
</linearGradient>
<linearGradient id="paint15_linear_6568_9987" x1="112.805" y1="38.5504" x2="463.004" y2="38.0242" gradientUnits="userSpaceOnUse">
<stop stop-color="#E5F0F8"/>
<stop offset="1" stop-color="#AACBE9"/>
</linearGradient>
<linearGradient id="paint16_linear_6568_9987" x1="112.805" y1="38.5504" x2="463.004" y2="38.0242" gradientUnits="userSpaceOnUse">
<stop stop-color="#E5F0F8"/>
<stop offset="1" stop-color="#AACBE9"/>
</linearGradient>
<clipPath id="clip0_6568_9987">
<rect width="594" height="77" fill="white"/>
</clipPath>
</defs>
</svg>
